public/assets/signin/vk.svg

<svg width="24" height="25" viewBox="0 0 24 25" fill="none" xmlns="http://www.w3.org/2000/svg">
<g id="24/ vk">
<path id="Vector" d="M15.073 2.5H8.937C3.333 2.5 2 3.833 2 9.427V15.563C2 21.166 3.323 22.5 8.927 22.5H15.063C20.666 22.5 22 21.177 22 15.573V9.437C22 3.833 20.677 2.5 15.073 2.5ZM18.146 16.77H16.687C16.135 16.77 15.969 16.323 14.979 15.333C14.115 14.5 13.75 14.396 13.531 14.396C13.229 14.396 13.146 14.479 13.146 14.896V16.208C13.146 16.563 13.031 16.771 12.104 16.771C11.2043 16.7105 10.3319 16.4372 9.5586 15.9735C8.78527 15.5098 8.13317 14.8691 7.656 14.104C6.52317 12.694 5.73494 11.0391 5.354 9.271C5.354 9.052 5.437 8.854 5.854 8.854H7.312C7.687 8.854 7.822 9.021 7.969 9.406C8.677 11.49 9.885 13.302 10.375 13.302C10.563 13.302 10.645 13.219 10.645 12.75V10.604C10.583 9.625 10.063 9.542 10.063 9.188C10.0697 9.09463 10.1125 9.00753 10.1823 8.94518C10.2521 8.88283 10.3435 8.85012 10.437 8.854H12.729C13.042 8.854 13.146 9.01 13.146 9.385V12.281C13.146 12.594 13.281 12.698 13.375 12.698C13.563 12.698 13.708 12.594 14.052 12.25C14.7909 11.3489 15.3945 10.3451 15.844 9.27C15.8899 9.14086 15.9769 9.0303 16.0915 8.95519C16.2062 8.88008 16.3423 8.84454 16.479 8.854H17.938C18.375 8.854 18.468 9.073 18.375 9.385C17.8445 10.5734 17.1881 11.7015 16.417 12.75C16.26 12.99 16.197 13.115 16.417 13.396C16.562 13.615 17.073 14.042 17.417 14.448C17.9169 14.9466 18.332 15.5236 18.646 16.156C18.771 16.562 18.562 16.77 18.146 16.77Z" fill="#202020"/>
</g>
</svg>

<svg width="24" height="25" fill="none" xmlns="http://www.w3.org/2000/svg"><path d="M15.073 2.5H8.937C3.333 2.5 2 3.833 2 9.427v6.136C2 21.166 3.323 22.5 8.927 22.5h6.136c5.603 0 6.937-1.323 6.937-6.927V9.437C22 3.833 20.677 2.5 15.073 2.5Zm3.073 14.27h-1.459c-.552 0-.718-.447-1.708-1.437-.864-.833-1.229-.937-1.448-.937-.302 0-.385.083-.385.5v1.312c0 .355-.115.563-1.042.563a5.692 5.692 0 0 1-4.448-2.667 11.626 11.626 0 0 1-2.302-4.833c0-.219.083-.417.5-.417h1.458c.375 0 .51.167.657.552.708 2.084 1.916 3.896 2.406 3.896.188 0 .27-.083.27-.552v-2.146c-.062-.979-.582-1.062-.582-1.416a.36.36 0 0 1 .374-.334h2.292c.313 0 .417.156.417.531v2.896c0 .313.135.417.229.417.188 0 .333-.104.677-.448a12 12 0 0 0 1.792-2.98.628.628 0 0 1 .635-.416h1.459c.437 0 .53.219.437.531a18.205 18.205 0 0 1-1.958 3.365c-.157.24-.22.365 0 .646.145.219.656.646 1 1.052.5.499.915 1.076 1.229 1.708.125.406-.084.614-.5.614Z" fill="#202020"/></svg>
